packages/core/src/svgs/networks/mono/metis-andromeda.svg

<svg width="24" height="24" viewBox="0 0 24 24" fill="none" xmlns="http://www.w3.org/2000/svg">
<path d="M11.7946 12.9052C12.0005 12.5291 12.3532 12.1229 12.6717 11.7166C13.5295 11.729 14.1128 11.7647 14.9418 11.3227C15.2355 11.1704 15.3123 11.1814 15.4002 10.841C14.3777 10.841 14.154 10.959 13.3181 11.158C13.8657 10.3702 15.989 9.86376 16.118 8.86461C15.3823 9.02931 15.1188 9.15283 14.6124 9.53436L13.4059 10.5116C13.4595 10.1822 13.6887 9.82945 13.8177 9.53436C14.0071 9.09382 13.9536 8.92912 14.0771 8.4707C13.7189 8.50502 13.5363 8.90029 13.3126 9.21734C12.3299 10.6873 12.7005 11.8813 11.6121 12.5237C11.6835 11.7935 11.9717 10.97 11.7535 10.152C11.1358 10.0943 11.0658 11.4874 11.0658 12.2821C11.0658 14.1116 11.0947 13.2236 10.4661 14.5289C10.418 14.0224 10.4592 12.8531 10.3178 12.4989C10.1476 12.0584 10.2767 12.2107 9.91844 12.2052C9.65903 12.6884 9.8306 14.0348 9.94177 14.5755C10.0296 15.0353 10.1476 15.211 10.0296 15.5939C9.97745 15.7586 9.74825 16.3529 9.65903 16.5286C9.5012 15.7929 9.0949 14.4877 8.49512 14.5646C8.32493 15.27 9.12372 16.5409 9.53002 16.858C9.51904 17.5058 9.34199 17.6938 9.32415 18.4693C9.42983 18.2813 9.46002 18.1811 9.51218 17.9752C9.56022 17.7762 9.60139 17.5346 9.61786 17.3288C10.4002 17.3054 11.9127 17.1407 12.054 16.0935C11.4062 15.8821 10.3178 16.6233 9.81824 16.8992C9.88961 16.5053 10.2067 15.6639 10.418 15.4059C11.0247 15.5582 12.6126 15.4526 12.8185 14.5934L10.5182 15.0353L11.295 13.6052C12.1419 13.6052 13.8836 13.3471 14.0826 12.5291C13.0889 12.4111 12.5824 12.7529 11.7891 12.9052H11.7946Z" fill="white"/>
<path d="M12.0244 2C17.5295 2 21.9997 6.55256 21.9997 12.1647C21.9997 17.8235 17.6242 20.7524 14.5594 22H14.5416C13.8004 21.0585 14.0708 21.2355 14.8476 19.3346C15.4117 17.9525 15.3184 17.759 15.5298 17.1345C15.6121 16.9012 15.7713 16.7228 15.8646 16.5471C18.5534 16.5114 18.7647 16.4826 18.7469 15.3709C18.7469 14.6119 18.7002 14.8822 19.0186 14.4005C18.7949 14.0464 18.8539 13.9119 18.9294 13.6594C19.0653 13.2174 18.9116 13.2709 18.8128 12.888C19.1422 12.5943 19.4469 12.5819 19.6472 12.1359C19.4235 11.7708 19.0886 11.6006 18.7537 11.3289C18.1649 10.8485 17.8946 10.471 17.8822 10.165C17.8657 9.75323 18.2418 9.46501 18.2473 9.22344C18.2596 8.94757 17.9001 8.51797 17.7299 8.20642L17.2001 7.03019C16.6236 5.60692 15.8358 5.46555 14.1833 5.27752C12.8424 5.11831 12.0175 4.93439 11.3176 4.94125C10.4364 4.94812 9.74195 5.44084 8.43529 6.47021C7.85945 6.91692 7.23179 7.29249 6.56595 7.5888C5.66011 8.28191 4.38918 9.35384 4.37682 10.5122C4.35898 11.0118 4.36584 11.5059 4.35349 12C4.32467 13.3409 5.31836 13.5825 5.4707 13.9174C5.58874 14.1644 5.51874 14.4238 5.67658 14.7766C5.91814 15.3063 5.88931 15.0003 6.23655 15.283C6.54125 15.5163 6.67712 16.2822 6.88849 16.6528C7.31259 17.3939 8.98841 17.7823 9.31236 18.0404C9.25883 18.9531 8.32412 20.541 7.66532 21.3234C5.95895 20.4765 4.5239 19.1687 3.52278 17.548C2.52165 15.9273 1.99449 14.0586 2.00104 12.1537C2.04221 6.55394 6.51243 2 12.0244 2Z" fill="white"/>
</svg>

<svg xmlns="http://www.w3.org/2000/svg" width="24" height="24" fill="none" viewBox="0 0 24 24">
    <path fill="#fff" d="M11.795 12.905c.206-.376.558-.782.877-1.188.857.012 1.44.048 2.27-.394.293-.153.37-.142.458-.482-1.022 0-1.246.118-2.082.317.548-.788 2.671-1.294 2.8-2.293-.736.164-1 .288-1.506.67l-1.206.977c.053-.33.283-.683.412-.978.19-.44.136-.605.26-1.063-.36.034-.542.43-.765.746-.983 1.47-.613 2.664-1.7 3.307.07-.73.359-1.554.14-2.372-.617-.058-.687 1.335-.687 2.13 0 1.83.029.942-.6 2.247-.048-.507-.007-1.676-.148-2.03-.17-.44-.041-.288-.4-.294-.259.483-.087 1.83.024 2.37.088.46.206.636.088 1.019-.053.165-.282.759-.371.935-.158-.736-.564-2.041-1.164-1.964-.17.705.629 1.976 1.035 2.293-.011.648-.188.836-.206 1.611.106-.188.136-.288.188-.494.048-.199.09-.44.106-.646.782-.024 2.295-.188 2.436-1.236-.648-.21-1.736.53-2.236.806.072-.394.389-1.235.6-1.493.607.152 2.195.047 2.4-.813l-2.3.442.777-1.43c.847 0 2.589-.258 2.788-1.076-.994-.118-1.5.224-2.294.376z"/>
    <path fill="#fff" d="M12.024 2C17.53 2 22 6.553 22 12.165c0 5.659-4.376 8.587-7.44 9.835h-.018c-.742-.942-.471-.765.306-2.665.564-1.383.47-1.576.682-2.2.082-.234.241-.412.335-.588 2.688-.036 2.9-.064 2.882-1.176 0-.76-.047-.489.272-.97-.224-.355-.165-.49-.09-.742.136-.442-.017-.388-.116-.771.33-.294.634-.306.834-.752-.223-.365-.558-.535-.893-.807-.59-.48-.86-.858-.872-1.164-.016-.412.36-.7.365-.942.013-.275-.347-.705-.517-1.017L17.2 7.03c-.576-1.423-1.364-1.564-3.017-1.752-1.34-.16-2.165-.344-2.865-.337-.882.007-1.576.5-2.883 1.53a9 9 0 0 1-1.87 1.118c-.905.693-2.176 1.765-2.188 2.923-.018.5-.011.994-.024 1.488-.028 1.34.965 1.582 1.118 1.917.118.247.048.507.206.86.241.53.212.223.56.506.304.233.44 1 .651 1.37.425.74 2.1 1.13 2.424 1.387-.053.913-.988 2.501-1.647 3.283a10.2 10.2 0 0 1-5.664-9.17C2.042 6.554 6.512 2 12.024 2"/>
</svg>
